X:1
T:Blacklands, 12.11.12.11
T:Ray Steadman-Allen
T:Blacklands, 12.11.12.11
C:Ray Steadman-Allen
%%score ( 1 2 ) ( 3 4 )
L:1/8
M:3/4
K:C
V:1 treble 
V:2 treble 
V:3 bass 
V:4 bass 
V:1
 (GF) | [CE]2 [CE]2 (ED) | C2 C2 (cB) | [CA]2 [Cc]2 [FA]2 | [FA]2 [EG]2 (GF) | [CE]2 [CE]2 (ED) | %6
 C2 [CE]2 [DG]2 | [CA]2 [CD]2 [CE]2 | [B,D]4 ([CE][DF]) | [EG]2 [EG]2 (E[DG]) | [CA]2 [CA]2 (^GA) | %11
 [EB]2 [EB]2 (AB) | [Ed]2 [Ec]2 (BA) | [EG]2 [Ec]2 [Ge]2 | [^Fd]2 [FA]2 [Fc]2 | [FB]2 [Fc]2 [Fd]2 | %16
 [Ec]4 |] %17
V:2
 B,2 | x4 B,2 | x4 C2 | x6 | x4 D2 | x4 B,2 | x6 | x6 | x6 | x6 | x4 E2 | x4 E2 | x4 ^D2 | x6 | %14
 x6 | x6 | x4 |] %17
V:3
 [G,,G,]2 | [C,G,]2 [C,G,]2 [G,,F,]2 | [A,,E,]2 [A,,E,]2 [E,G,]2 | [F,A,]2 [F,A,]2 [F,C]2 | %4
 [C,C]2 [C,C]2 [B,,G,]2 | [B,,G,]2 [B,,G,]2 (G,F,) | [E,G,]2 [C,G,]2 [C,G,]2 | %7
 [A,,E,]2 [A,,^F,]2 [D,F,]2 | [G,,G,]4 [C,G,]2 | [C,C]2 (C,D,) ([C,C][C,G,]) | %10
 [A,,E,]2 [A,,E,]2 (E,^F,) | [E,^G,]2 [E,G,]2 (^F,G,) | [^G,B,]2 (A,=G,) [^F,C]2 | %13
 C2 z A, [_B,C]2 | [A,C]2 [A,C]2 (E,D,) | [G,D]2 [G,A,]2 [G,B,]2 | [C,C]4 |] %17
V:4
 x2 | x6 | x6 | x6 | x6 | x4 G,2 | x6 | x6 | x6 | x2 G,2 x2 | x4 E,2 | x4 E,2 | x2 C2 x2 | %13
 G,3 C2 x | x4 C2 | x6 | x4 |] %17

